images/menu.svg

<?xml version="1.0" encoding="UTF-8"?>
<svg width="13px" height="11px" viewBox="0 0 13 11" version="1.1" xmlns="http://www.w3.org/2000/svg" xmlns:xlink="http://www.w3.org/1999/xlink">
    <!-- Generator: Sketch 51.2 (57519) - http://www.bohemiancoding.com/sketch -->
    <title>icon</title>
    <desc>Created with Sketch.</desc>
    <defs>
        <path d="M12.6953125,2.89453125 L3.25,2.89453125 C3.16586287,2.89453125 3.09765625,2.82632463 3.09765625,2.7421875 L3.09765625,2.1328125 C3.09765625,2.04867537 3.16586287,1.98046875 3.25,1.98046875 L12.6953125,1.98046875 C12.7794496,1.98046875 12.8476562,2.04867537 12.8476562,2.1328125 L12.8476562,2.7421875 C12.8476562,2.82632463 12.7794496,2.89453125 12.6953125,2.89453125 Z M12.8476562,6.8046875 L12.8476562,6.1953125 C12.8476562,6.11117537 12.7794496,6.04296875 12.6953125,6.04296875 L3.25,6.04296875 C3.16586287,6.04296875 3.09765625,6.11117537 3.09765625,6.1953125 L3.09765625,6.8046875 C3.09765625,6.88882463 3.16586287,6.95703125 3.25,6.95703125 L12.6953125,6.95703125 C12.7794496,6.95703125 12.8476562,6.88882463 12.8476562,6.8046875 Z M12.8476562,10.8671875 L12.8476562,10.2578125 C12.8476562,10.1736754 12.7794496,10.1054688 12.6953125,10.1054688 L3.25,10.1054688 C3.16586287,10.1054688 3.09765625,10.1736754 3.09765625,10.2578125 L3.09765625,10.8671875 C3.09765625,10.9513246 3.16586287,11.0195312 3.25,11.0195312 L12.6953125,11.0195312 C12.7794496,11.0195312 12.8476562,10.9513246 12.8476562,10.8671875 Z M1.06640625,1.5234375 C0.561589844,1.5234375 0.15234375,1.93268359 0.15234375,2.4375 C0.15234375,2.94231641 0.561589844,3.3515625 1.06640625,3.3515625 C1.57122266,3.3515625 1.98046875,2.94231641 1.98046875,2.4375 C1.98046875,1.93268359 1.57122266,1.5234375 1.06640625,1.5234375 Z M1.06640625,5.5859375 C0.561589844,5.5859375 0.15234375,5.99518359 0.15234375,6.5 C0.15234375,7.00481641 0.561589844,7.4140625 1.06640625,7.4140625 C1.57122266,7.4140625 1.98046875,7.00481641 1.98046875,6.5 C1.98046875,5.99518359 1.57122266,5.5859375 1.06640625,5.5859375 Z M1.06640625,9.6484375 C0.561589844,9.6484375 0.15234375,10.0576836 0.15234375,10.5625 C0.15234375,11.0673164 0.561589844,11.4765625 1.06640625,11.4765625 C1.57122266,11.4765625 1.98046875,11.0673164 1.98046875,10.5625 C1.98046875,10.0576836 1.57122266,9.6484375 1.06640625,9.6484375 Z" id="path-1"></path>
    </defs>
    <g id="导航栏下拉菜单-navbar-dropdown" stroke="none" stroke-width="1" fill="none" fill-rule="evenodd">
        <g id="navbar-dropdown/product/col3-with-link" transform="translate(-678.000000, -705.000000)">
            <g id="button" transform="translate(360.000000, 688.000000)">
                <g id="Group" transform="translate(16.000000, 12.000000)">
                    <g id="light/list-ul" transform="translate(302.000000, 4.000000)">
                        <mask id="mask-2" fill="white">
                            <use xlink:href="#path-1"></use>
                        </mask>
                        <use id="list-ul" fill="#000000" fill-rule="nonzero" xlink:href="#path-1"></use>
                        <g id="grey/900(dark)" mask="url(#mask-2)" fill="#3B3E40" fill-rule="evenodd">
                            <rect id="base" x="0" y="0" width="13" height="13"></rect>
                        </g>
                    </g>
                </g>
            </g>
        </g>
    </g>
</svg>

<svg width="13" height="11" xmlns="http://www.w3.org/2000/svg" xmlns:xlink="http://www.w3.org/1999/xlink"><defs><path d="M12.695 2.895H3.25a.152.152 0 01-.152-.153v-.61c0-.083.068-.152.152-.152h9.445c.084 0 .153.069.153.153v.61a.152.152 0 01-.153.152zm.153 3.91v-.61a.152.152 0 00-.153-.152H3.25a.152.152 0 00-.152.152v.61c0 .084.068.152.152.152h9.445a.152.152 0 00.153-.152zm0 4.062v-.61a.152.152 0 00-.153-.152H3.25a.152.152 0 00-.152.153v.61c0 .083.068.152.152.152h9.445a.152.152 0 00.153-.153zM1.066 1.523a.914.914 0 100 1.829.914.914 0 000-1.829zm0 4.063a.914.914 0 100 1.828.914.914 0 000-1.828zm0 4.062a.914.914 0 100 1.829.914.914 0 000-1.829z" id="a"/></defs><g transform="translate(0 -1)" fill="none" fill-rule="evenodd"><mask id="b" fill="#fff"><use xlink:href="#a"/></mask><use fill="#000" fill-rule="nonzero" xlink:href="#a"/><g mask="url(#b)" fill="#3B3E40"><path d="M0 0h13v13H0z"/></g></g></svg>
